X: 9713
T: Dédicado à Joe
R: reel
M: 4/4
K: Bminor
B,2F2 G2F2|:"Bm"B2Bc d2e2|fgfd B3f|"F#"fgfd c3f|"Bm"fgfd B2F2|B3c d2e2|
fgfd B3f|1 "F#" fgfd cfed|"Bm"B2F2 "F#"G2F2:|2 "F#"fgfd cedc|"Bm"B4 "A"A4||
K: Dmaj
|:"D"[d2 f2]fd fdfd|"G"[B2g2]gB gBgB|"A"[c3a3][ca] [c2a2][c2a2]-|[c2a2]g2 (3fgf e2|[c3a3][ca] [c2a2][c2a2]-|
"A"[c2a2]g2 (3fgf e2|1 "D"[d2f2]df dfdf|"A"cfcf BfAf:|2 "D"d3A "A"BAFA|"D"d4 "F#"c4||

